!!!!SEGMENT: pl-sa--563-a-ix-43_anonim--polonoise.krn
!!!cenid: 18xx:587
!!!COM: Anonim
!!!COM-rismid: pe30004985
!!!CDT:
!!!CNT:
!!!OTL: Polonoise
!!!PDT:
!!!AGN: Secular; Polonaise
!!!SMS-siglum: PL-SA
!!!SMS-shelfmark: 563/A IX 43
!!!SMS-shelfwork: W
!!!SMS-variant:
!!!SMS-altvar:
!!!NIFC-rismid: 1001065433
!!!URL-scan: http://bc.bdsandomierz.pl/dlibra/publication/1319/edition/1287/content
!!!ONB-nifc:
**kern	**kern	**dynam
*part2	*part1	*part1
*staff2	*staff1	*
*Ipiano	*Ipiano	*
*I"Piano	*I"Piano	*
*group1	*group1	*
*clefF4	*clefG2	*
*k[]	*k[]	*
*F:	*F:	*
*M3/4	*M3/4	*
=1	=1	=1
*2\right	*2\right	*
32qqGG/LLL	.	.
32qqAA/	.	.
32qqBB/JJJ	.	.
8.C/L	8.c:/L 8.e: 8.cc:	.
16CC/Jk 16C	16c/Jk	.
4CC/ 4C	8c/L	.
.	16c/L 16e 16cc	.
.	16c/JJ 16e 16cc	.
4r	8c/L 8e 8cc	.
.	8c/J 8e 8cc	.
=2	=2	=2
32qqG/LLL	.	.
32qqA/	.	.
32qqB/JJJ	.	.
!LO:TX:a:t=P:problem:8\right:global	!	!
!LO:TX:a:t=P:problem:mixed beam	!	!
8.c\L	8.e:/L 8.g: 8.cc: 8.ee:	.
16CC/Jk 16C	16c/Jk	.
4ryy	8c/L	.
.	16e/L 16cc 16ee	.
.	16e/JJ 16cc 16ee	.
4r	8e/L 8cc 8ee	.
.	8e/J 8cc 8ee	.
=3	=3	=3
*Xtuplet	*Xtuplet	*
32qqG/LLL	.	.
32qqA/	.	.
32qqB/JJJ	.	.
!	!LO:TX:a:t=P:problem:8\right:global	!
8c\	8g:\ 8cc: 8ee: 8gg:	.
!LO:TX:a:t=P:problem:brak oznaczenia siedmioli	!LO:TX:a:t=P:problem:brak oznaczenia siedmioli	!
56C\LLL	(56c/LLL	.
56D\	56d/	.
56E\	56e/	.
56F\	56f/	.
56G\	56g/	.
56A\	56a/	.
56B\JJJ	56b/JJJ)	.
!LO:TX:a:t=P:problem:16\right:global	!LO:TX:a:t=P:problem:16\right:global	!
16c\LL	16cc\LL	.
16B\	16dd\	.
16A\	16ee\	.
16G\JJ	16ff\JJ	.
16F\LL	16gg\LL	.
16E\	16aa\	.
16D\	16bb\	.
16C\JJ	16ccc\JJ	.
=4	=4	=4
16A\LL	16aa\LL	.
16G\	16gg\	.
16F\	16ff\	.
16E\JJ	16ee\JJ	.
16D\LL	16dd\LL	.
16C\	16cc\	.
16BB\	16b\	.
16AA\JJ	16a\JJ	.
4GG/	4g/	.
*clefG2	*	*
!LO:TX:b:t=[segno]	!LO:TX:a:t=[segno]	!
=5||	=5||	=5||
!	!LO:TX:a:t=P:problem:4\right:global	!
8c/L 8e	4cc\ [4ee	p
8g/J	.	.
!	!LO:TX:a:i:t=Clarinetti	!
8c/L 8e	16cc\LL 16ee]	.
.	16dd\ 16ff	.
8g/J	16ee\ 16gg	.
.	16ff\JJ 16aa	.
8c/L 8e	8ee\L 8gg	.
8g/J	8ee\J 8gg	.
!LO:LB:g=original	!LO:LB:g=original	!
=6	=6	=6
8c/L 8e	(8ee\L 8gg	.
8g/J	16cc\Jk) 16ee	.
.	16r	.
8c/L 8e	(8ee\L 8gg	.
8g/J	16cc\Jk) 16ee	.
.	16r	.
8c/L 8e	(8ee\L 8gg	.
8g/J	16cc\Jk) 16ee	.
.	16r	.
=7	=7	=7
8c/L 8e	(8ee`\L 8gg	.
8g/J	16ff\L 16aa	.
.	16ee\JJ 16gg	.
*rep	*	*
8c/L 8e	16ff\LL 16aa	<
.	16ee\ 16gg	.
8g/J	16ff\ 16aa	.
.	16ee\JJ 16gg	>
*Xrep	*	*
*rep	*	*
8c/L 8e	16dd#X\LL 16ff#X	.
.	16ee\ 16gg	.
8g/J	16ffn\) 16aa	.
.	16ee\JJ 16gg	.
*Xrep	*	*
=8	=8	=8
8G/L 8B 8d	8.ee\L 8.gg	.
8g/J	.	.
.	16dd#X\Jk 16ff#X	.
*rep	*	*
8G/L 8B 8d	4ddn\ 4ffn	.
8g/J	.	.
*Xrep	*	*
*rep	*	*
8G/L 8B 8d	4r	.
8g/J	.	.
*Xrep	*	*
=9	=9	=9
8G/L 8B 8d	(4b\ 4dd	.
8g/J	.	.
*rep	*	*
8G/L 8B 8d	16b\LL 16dd	.
.	16cc\) 16ee	.
8g/J	16dd\ 16ff	.
.	16ee\JJ 16gg	.
*Xrep	*	*
*rep	*	*
8G/L 8B 8d	8dd\L 8ff	.
8g/J	8dd\J 8ff	.
*Xrep	*	*
!LO:LB:g=original	!LO:LB:g=original	!
=10	=10	=10
8G/L 8B 8d	(8dd\L 8ff	.
8g/J	16b\Jk) 16dd	.
.	16r	.
*rep	*	*
8G/L 8B 8d	(8dd\L 8ff	.
8g/J	16b\Jk) 16dd	.
.	16r	.
*Xrep	*	*
*rep	*	*
8G/L 8B 8d	(8dd\L 8ff	.
8g/J	16b\Jk) 16dd	.
.	16r	.
*Xrep	*	*
=11	=11	=11
8G/L 8B 8d	(8dd`\L 8ff	.
8g/J	16ee\L 16gg	.
.	16dd\JJ 16ff	.
*rep	*	*
8G/L 8B 8d	16ee\LL 16gg	<
.	16dd\ 16ff	.
8g/J	16ee\ 16gg	.
.	16dd\JJ 16ff	>
*Xrep	*	*
*rep	*	*
8G/L 8B 8d	16cc#X\LL 16ee	.
.	16dd\) 16ff	.
8g/J	16ee\ 16gg	.
.	16dd\JJ 16ff	.
*Xrep	*	*
=12	=12	=12
8c/L 8e	8.dd\L 8.ff	.
8g/J	.	.
.	16b\Jk 16dd#X	.
8c/ 8e	4cc\ 4ee	.
*clefF4	*	*
8C\L 8c	.	.
8E\ 8e	4r	.
8G\J 8g	.	.
=13	=13	=13
8C\L 8c	(16ee\LL 16gg	sf
.	16ff\ 16aa	.
16c\L	16ee\ 16gg	.
16c\JJ	16ff\JJ 16aa	.
8c\L	8ee\L) 8gg	.
8c\J	16ee\L 16ccc	.
.	(16gg\JJ 16bb	.
8A\L 8c	16ff\LL 16aa	.
.	16gg\ 16bb	.
8F\J 8c	16aa\ 16ccc	.
.	16ff\JJ) 16aa	.
!LO:LB:g=original	!LO:LB:g=original	!
=14	=14	=14
8C\L 8c	(16ee\LL 16gg	sf
.	16ff\ 16aa	.
16c\L	16ee\ 16gg	.
16c\JJ	16ff\JJ) 16aa	.
8c\L	8ee\L 8gg	.
8c\J	16ee\L 16ccc	.
.	(16gg\JJ 16bb	.
8A\L 8c	16ff\LL 16aa	.
.	16gg\ 16bb	.
8F\J 8c	16aa\ 16ccc	.
.	16ff\JJ) 16aa	.
=15	=15	=15
8C\L 8c	(16ee\LL 16gg	sf
.	16ff\ 16aa	.
16c\L	16ee\ 16gg	.
16c\JJ	16ff\JJ) 16aa	.
8c\L	8ee\L 8gg	.
8c\J	16ee\L 16ccc	.
.	(16gg\JJ 16bb	.
8A\L 8c	16ff\LL 16aa	.
.	16gg\ 16bb	.
8F\J 8c	16aa 16ccc\	.
.	16ff\JJ) 16aa	.
=16	=16	=16
8C\L 8c	(16ee\LL 16gg	sf
.	16ff\ 16aa	.
16c\L	16ee\ 16gg	.
16c\JJ	16ff\JJ) 16aa	.
8c\L	8ee\L 8gg	.
8c\J	16ee\L 16ccc	.
.	16gg\JJ 16bb	.
8A\L 8c	16ff\LL 16aa	.
.	16gg\ 16bb	.
8F\J 8c	16aa\ 16ccc	.
.	16ff\JJ 16aa	.
=17	=17	=17
8C\ 8c	8ee`\L 8gg	.
*	*tuplet	*
!	!LO:TX:b:i:t=Pedale	!
!	!LO:TX:a:t=P:problem: klamra łukowa	!
!	!LO:TUP:a	!
8r	24ee\L 24gg	.
.	24aa\	.
.	24gg\JJ	.
8C:\ 8E: 8G: 8c:	8cc`\L 8ee	.
!	!LO:TX:a:t=P:problem: klamra łukowa	!
!	!LO:TUP:a	!
8r	24ee\L 24gg	.
.	24aa\	.
.	24gg\JJ	.
8C:\ 8E: 8G: 8c:	8cc`\L 8ee	.
!	!LO:TX:a:t=P:problem: klamra łukowa	!
!	!LO:TUP:a	!
8r	24gg\L	.
.	24aa\	.
.	24gg\JJ	.
!LO:LB:g=original	!LO:LB:g=original	!
=18	=18	=18
8C\L 8E 8G 8c	8ee`\L	.
!	!LO:TX:a:t=P:problem: klamra łukowa	!
!	!LO:TUP:a	!
8GG\ 8G	24gg\L	.
.	24aa\	.
.	24bb\JJ	.
8C\ 8c	8aa\L	4ccc'\L
!	!LO:TX:a:t=P:problem: klamra łukowa	!
!	!LO:TUP:a	!
8GG\ 8G	24gg\L	.
.	24aa\	.
.	24bb\JJ	.
8C\ 8c	8aa\L	4ccc'\L
!	!LO:TX:a:t=P:problem: klamra łukowa	!
!	!LO:TUP:a	!
8GG\J 8G	24gg\L	.
.	24aa\	.
.	24bb\JJ	.
=19	=19	=19
!LO:TX:a:t=P:problem:znak "głowy" nad nutą	!	!
8C\L 8c	16ccc\LL	.
.	16bb\	.
8C\ 8c	16aa\	.
.	16gg\JJ	.
8E\ 8G 8c	16ff\LL	.
.	16ee\	.
8E\ 8G 8c	16dd\	.
.	16cc\JJ	.
8F\ 8A 8d	16aa\LL	.
.	16ee\	.
8F\J 8A 8d	16ff\	.
.	16dd\JJ	.
=20	=20	=20
!LO:TX:a:t=P:problem:dwie górne nuty zapisane na linii klucza wiolinowego	!	!
8G\L 8c 8e	16cc/LL	.
.	16b/	.
!LO:TX:a:t=P:problem:dwie górne nuty zapisane na linii klucza wiolinowego	!	!
8G\J 8d 8f	16ee/	.
.	16dd/JJ	.
8r	4b/ 4dd	.
!LO:TX:a:t=P:problem:dwie górne nuty zapisane na linii klucza wiolinowego	!	!
8G\ 8d 8f	.	.
4c\ 4e	8cc\	.
.	8r	.
=21:|!|:	=21:|!|:	=21:|!|:
16G\LL	8g:\ 8b: 8dd: 8gg:	.
16d\	.	.
!	!LO:TX:a:t=P:problem:32\right:global	!
16B\	32aa\LLL	.
.	32gg\	.
16d\JJ	32ff#X\	.
.	32gg\JJJ	.
*rep	*	*
16G\LL	8bb'\L	.
16d\	.	.
16B\	8gg'\	.
16d\JJ	.	.
*Xrep	*	*
*rep	*	*
16G\LL	8dd'\	.
16d\	.	.
16B\	8b'\J	.
16d\JJ	.	.
*Xrep	*	*
!LO:LB:g=original	!LO:LB:g=original	!
=22	=22	=22
16G\LL	[4g/	.
16d\	.	.
16B\	.	.
16d\JJ	.	.
*rep	*	*
16G\LL	16g/LL]	.
16d\	16a/	.
16B\	16b/	.
16d\JJ	16cc/JJ	.
*Xrep	*	*
*rep	*	*
16G\LL	16dd\LL	.
16d\	16ee\	.
16B\	16ff#X\	.
16d\JJ	16gg\JJ	.
*Xrep	*	*
=23	=23	=23
16D\LL 16A	8.a\L 8.cc 8.ff#X	.
16d\	.	.
16c\	.	.
16d\JJ	32aa\LL	.
.	32gg\JJJ	.
*rep	*	*
16D\LL 16A	8ff#\L	.
16d\	.	.
16c\	8cc'\ 8ccc	.
16d\JJ	.	.
*Xrep	*	*
*rep	*	*
16D\LL 16A	8a'\ 8aa	.
16d\	.	.
16c\	8f#X'\J 8ff#X	.
16d\JJ	.	.
*Xrep	*	*
=24	=24	=24
.	(8qqd/	.
16D\LL 16A	8dd\L)	.
16d\	.	.
16c\	16dd\L	.
16d\JJ	16ee\JJ	.
*rep	*	*
16D\LL 16A	16ff#X\LL	.
16d\	16gg\	.
16c\	16aa\	.
16d\JJ	16bb\JJ	.
*Xrep	*	*
*rep	*	*
16D\LL 16A	16ccc\LL	.
16d\	16ddd\	.
16c\	16eee\	.
16d\JJ	16fff#X\JJ	.
*Xrep	*	*
=25	=25	=25
*	*8va	*
8G\ 8B	8ggg`\L	.
8r	16bbb\L	.
!	!LO:TX:a:i:t=Picolino	!
.	16dddd\JJ	.
*clefG2	*	*
8d/ 8g 8b	8ggg`\L	.
8r	16bbb\L	.
.	16dddd\JJ	.
8d/ 8g 8b	8ggg`\L	.
8r	16bbb\L	.
.	16dddd\JJ	.
!LO:LB:g=original	!LO:LB:g=original	!
=26	=26	=26
8d/L 8f#X 8a 8cc	16cccc\LL	.
.	16bbb\JJ	.
16d/L 16f# 16a 16cc	4aaa\	.
16d/JJ 16f# 16a 16cc	.	.
8d/L 8f# 8a 8cc	.	.
8d/ 8f# 8a 8cc	16ggg\LL	.
.	16fff#X\JJ	.
8d/ 8f# 8a 8cc	16eee\LL	.
.	16ddd\	.
8d/J 8f# 8a 8cc	16eee\	.
.	16fff#X\JJ	.
=27	=27	=27
8d/ 8g 8b	8ggg`\L	.
8r	(16bbb\L	.
.	16dddd\JJ)	.
8d/ 8g 8b	8ggg`\L	.
8r	(16bbb\L	.
.	16dddd\JJ)	.
8d/ 8g 8b	8ggg`\L	.
8r	(16bbb\L	.
.	16dddd\JJ)	.
=28	=28	=28
8d/L 8f#X 8a 8cc	16cccc\LL	.
.	16bbb\JJ	.
16d/L 16f# 16a 16cc	4aaa\	.
16d/JJ 16f# 16a 16cc	.	.
8d/L 8f# 8a 8cc	.	.
8d/ 8f# 8a 8cc	16ggg\LL	.
.	16fff#X\JJ	.
8d/ 8f# 8a 8cc	16eee\LL	.
.	16ddd\	.
8d/J 8f# 8a 8cc	16eee\	.
.	16fff#\JJ	.
=29	=29	=29
4g/ 4b	8ggg`\L	.
.	16ggg\L	.
.	16bbb\JJ	.
!LO:TX:a:i:t=Pedal	!	!
8r	4.dddT\	.
8g/L 8b	.	.
8a/ 8cc	.	.
8d/J 8a	16eee\LL	.
.	16fff#X\JJ	.
!LO:LB:g=original	!LO:LB:g=original	!
=30	=30	=30
4g/ 4b	8ggg`\L	.
.	16ggg\L	.
.	16bbb\JJ	.
8r	4.dddT\	.
8g/L 8b	.	.
8a/ 8cc	.	.
8d/J 8a	16eee\LL	.
.	16fff#X\JJ	.
=31	=31	=31
8g/ 8b	16ggg\LL	.
.	16aaa\	.
8r	16bbb\	.
.	16cccc\JJ	.
8G/ 8d 8g	8dddd\L	.
8r	8bbb`\	.
8c/ 8e 8g	8cccc`\	.
8r	8eeee\J	.
=32	=32	=32
8d/L 8g	16dddd\LL	.
.	16bbb\	.
8d/J 8f#X	16cccc\	.
.	16aaa\JJ	.
8r	4aaa\	.
8d/ 8f#X 8cc	.	.
!LO:TX:a:t=P:problem:4\right:global	!	!
4g/ 4b	8ggg\	.
*	*X8va	*
!	!LO:TX:b:t=Dal Segno	!
.	8r	.
*clefF4	*	*
!LO:TX:b:t=[segno]	!LO:TX:a:t=[segno]	!
!LO:PB:g=original	!LO:PB:g=original	!
=33||	=33||	=33||
*k[b-]	*k[b-]	*
*M3/4	*M3/4	*
!	!LO:TX:a:t=Trio	!
8F\L 8A 8c	8f/L 8a	p
16F\L 16A 16c	16f/L 16a	.
16F\JJ 16A 16c	16f/JJ 16a	.
8F\L 8A 8c	8f/L 8a	.
8F\ 8A 8c	8f/ 8a	.
8F\ 8A 8c	8f/ 8a	.
8F\J 8A 8c	8f/J 8a	.
=34	=34	=34
8F\L 8A 8c	8f/L 8a	.
8F\ 8A 8c	8f/ 8a	.
8F\ 8A 8c	8f/ 8a	.
8F\ 8A 8c	8f/ 8a	.
8F\ 8A 8c	8f/ 8a	.
8F\J 8A 8c	8f/J 8a	.
!LO:TX:b:t=[segno]	!LO:TX:a:t=[segno]	!
=35||	=35||	=35||
.	8qqa/	.
8F\L 8A 8c	2ccc\	.
8F\ 8A 8c	.	.
8F\ 8A 8c	.	.
8F\ 8A 8c	.	.
8F\ 8A 8c	8.aa\L	.
8F\J 8A 8c	.	.
.	16ff\Jk	.
=36	=36	=36
8F\L 8G 8B- 8c	8gg`\L	.
8F\J 8G 8B- 8c	8cc`\J	.
*tremolo	*	*
*tremolo	*	*
8F\ 8A 8cL	4.ff\	.
8F\ 8A 8c	.	.
8F\ 8A 8c	.	.
8F\ 8A 8cJ	8aa\	.
*Xtremolo	*	*
=37	=37	=37
8F\L 8G 8B- 8c	8gg`\L	.
8F\J 8G 8B- 8c	8cc`\J	.
*tremolo	*	*
8F\ 8A 8cL	4.ff\	.
8F\ 8A 8c	.	.
8F\ 8A 8c	.	.
8F\ 8A 8cJ	16gg\LL	.
.	16aa\JJ	.
*Xtremolo	*	*
=38	=38	=38
!	!LO:TX:a:t=P:problem:zamazane nuty	!
8E\L 8G 8c	8gg\L 8bb-	.
8E\ 8G 8c	8gg\J 8bb-	.
8F\ 8A 8c	8ff\L 8aa	.
8F\J 8A 8c	8ff\J 8ccc	.
8C\ 8E 8G 8c	8ee\L 8gg	.
8r	32gg\LL	.
.	32aa\	.
.	32bb-\	.
.	32bbn\JJJ	.
!	!LO:TX:a:t=P:problem:naderwany róg kartki	!
!LO:LB:g=original	!LO:LB:g=original	!
=39	=39	=39
8F\L 8A 8c	2ccc\	.
8F\ 8A 8c	.	.
8F\ 8A 8c	.	.
8F\ 8A 8c	.	.
8F\ 8A 8c	8.aa\L	.
8F\J 8A 8c	.	.
.	16ff\Jk	.
=40	=40	=40
8F\L 8G 8B- 8c	8gg`\L	.
8F\J 8G 8B- 8c	8cc`\J	.
*tremolo	*	*
8F\ 8A 8cL	4.ff\	.
8F\ 8A 8c	.	.
8F\ 8A 8c	.	.
8F\ 8A 8cJ	8aa\	.
*Xtremolo	*	*
=41	=41	=41
8F\L 8G 8B- 8c	8gg`\L	.
8F\J 8G 8B- 8c	8cc`\J	.
8F\L 8A 8c	8ff`\L	.
8C\ 8G 8c	8cc`\ 8gg	.
8F\ 8A 8c	8ff`\ 8aa	.
8C\J 8G 8c	8gg`\J 8bb-	.
=42	=42	=42
8F\L 8A 8c	(16aa\LL 16ccc	.
.	16gg\) 16bb-	.
8C\J 8G 8c	16ff`\ 16aa	.
.	16ee`\JJ 16gg	.
8r	4ee\ 4gg	.
8C\ 8G 8c	.	.
4F\ 4A 4c	8ff\	.
.	8r	.
*clefG2	*	*
=43:|!|:	=43:|!|:	=43:|!|:
*	*8va	*
!	!LO:TX:a:i:t=Flagolet	!
8c/ 8e 8g 8b-	16ccc\LL	.
!	!LO:TX:b:i:t=Pedal	!
.	16bbb-\	.
8r	16ggg\	.
.	16eee\JJ	.
8c/ 8e 8g 8b-	16ccc\LL	.
.	16bbb-\	.
8r	16ggg\	.
.	16eee\JJ	.
8c/ 8e 8g 8b-	16ccc\LL	.
.	16bbb-\	.
8r	16ggg\	.
.	16eee\JJ	.
=44	=44	=44
!LO:TX:a:t=P:problem:znak "głowy" nad nutą	!	!
8f/L 8a	16fff\LL	.
.	16aaa\	.
8a/ 8cc	16dddd\	.
.	16cccc\JJ	.
8f/ 8a	16bbbn\LL	.
.	16cccc\	.
8a/ 8cc	16ddddT\	.
.	16cccc\JJ	.
8f/ 8a	8.ccccT\L	.
8a/J 8cc	.	.
.	32bbbn\LL	.
.	32cccc\JJJ	.
!LO:LB:g=original	!LO:LB:g=original	!
=45	=45	=45
8c/ 8e 8g 8b-	16eee\LL	.
!	!LO:TX:b:i:t=Pedal	!
.	16bbb-\	.
8r	16ggg\	.
.	16eee\JJ	.
*	*rep	*
8c/ 8e 8g 8b-	16eee\LL	.
.	16bbb-\	.
8r	16ggg\	.
.	16eee\JJ	.
*	*Xrep	*
*	*rep	*
8c/ 8e 8g 8b-	16eee\LL	.
.	16bbb-\	.
8r	16ggg\	.
.	16eee\JJ	.
*	*Xrep	*
*clefF4	*	*
=46	=46	=46
8AA/L 8C	16fff\LL	.
.	16aaa\	.
8C/ 8E	16dddd\	.
.	16cccc\JJ	.
8AA/ 8C	16bbbn\LL	.
.	16cccc\	.
8C/ 8E	16dddd\	.
.	16cccc\JJ	.
8AA/ 8C	8.ccccT\L	.
8C/J 8E	.	.
.	32bbb\LL	.
.	32cccc\JJJ	.
=47	=47	=47
!	!LO:TX:b:i:t=Pedal	!
8D\ 8F	8bbb-X\L 8dddd	.
8r	16bbb-\L 16dddd	.
.	16aaa\JJ 16cccc#X	.
8D\ 8F	8bbb-\L 8dddd	.
8r	16bbb-\L 16dddd	.
.	16aaa\JJ 16cccc#X	.
4r	8bbbn\L 8ddddn	.
.	8bbb-X\J 8dddd	.
=48	=48	=48
8DD/ 8FF 8AA	8bbb-\L 8dddd	.
8r	16bbb-\L 16dddd	.
.	16aaa\JJ 16cccc#X	.
8D\ 8F	8bbb-\L 8dddd	.
8r	16bbb-\L 16dddd	.
.	16aaa\JJ 16cccc#	.
4r	8bbb-\L 8dddd	.
.	8bbb-\J 8dddd	.
*clefG2	*	*
!LO:LB:g=original	!LO:LB:g=original	!
=49	=49	=49
8B-/	8bbb-\L 8dddd	.
8r	16bbb-\L 16dddd	.
.	16aaa\JJ 16cccc#X	.
8b-\ 8dd	16bbb-\LL 16dddd	.
.	16ccccn\ 16eeee	.
8r	16dddd\ 16ffff	.
.	16eeee\JJ	.
8b-\ 8dd	16bbb-\LL 16dddd	.
.	16aaa\ 16cccc	.
8r	16ggg\ 16bbb-	.
.	16fff\JJ 16aaa	.
=50	=50	=50
!LO:TX:a:t=P:problem:znak "głowy" nad nutą	!	!
4c/ 4e 4g 4cc	16eee\LL 16ggg	.
.	16fff\ 16aaa	.
.	16ggg\ 16bbb-	.
.	16fff\JJ 16aaa	.
4r	16eee\LL 16ggg	.
.	16ddd\ 16fff	.
.	16ccc\ 16eee	.
.	16bb-\JJ 16ddd	.
4r	16aa/LL 16ccc	.
.	16gg/ 16bb-	.
.	16ff/ 16aa	.
.	16ee/JJ 16gg	.
*clefF4	*	*
=51	=51	=51
8F\L 8A 8c	8ff/L	.
*	*X8va	*
!	!LO:TX:a:i:t=loco	!
16F\L 16A 16c	16f/L 16a	.
16F\JJ 16A 16c	16f/JJ 16a	.
*tremolo	*	*
8F\ 8A 8cL	8f/L 8a	.
8F\ 8A 8c	8f/ 8a	.
8F\ 8A 8c	8f/ 8a	.
8F\ 8A 8cJ	8f/J 8a	.
=52	=52	=52
8F\ 8A 8cL	8f/L 8a	.
8F\ 8A 8c	8f/ 8a	.
8F\ 8A 8c	8f/ 8a	.
8F\ 8A 8cJ	8f/ 8a	.
*Xtremolo	*	*
*Xtremolo	*	*
!LO:TX:b:t=Trio Dal Segno	!	!
4r	8f/ 8a	.
.	8f/J 8a	.
!LO:TX:b:t=[segno]	!LO:TX:a:t=[segno]	!
==	==	==
*-	*-	*-
!!!system-decoration: [(g1)]
!!!ENC: Anna Matuszewska
!!!END: 2020-11-28
!!!ENC: Berenika Jozajtis
!!!END: 2020-06-19
